app/assets/icons/ellipsis.svg

<?xml version="1.0" encoding="utf-8"?>
<!-- Generator: Adobe Illustrator 25.0.0, SVG Export Plug-In . SVG Version: 6.00 Build 0)  -->
<svg version="1.1" id="Layer_1" xmlns="http://www.w3.org/2000/svg" xmlns:xlink="http://www.w3.org/1999/xlink" x="0px" y="0px"
	 viewBox="0 0 448 512" style="enable-background:new 0 0 448 512;" xml:space="preserve">
<style type="text/css">
	.st0{fill:#333333;}
</style>
<path class="st0" d="M336,256c0-8.8,7.2-16,16-16s16,7.2,16,16c0,8.8-7.2,16-16,16S336,264.8,336,256z M208,256c0-8.8,7.2-16,16-16
	s16,7.2,16,16c0,8.8-7.2,16-16,16S208,264.8,208,256z M112,256c0,8.8-7.2,16-16,16c-8.8,0-16-7.2-16-16c0-8.8,7.2-16,16-16
	C104.8,240,112,247.2,112,256z"/>
</svg>

<svg xmlns="http://www.w3.org/2000/svg" viewBox="0 0 448 512"><!--! Font Awesome Pro 6.0.0 by @fontawesome - https://fontawesome.com License - https://fontawesome.com/license (Commercial License) Copyright 2022 Fonticons, Inc. --><path d="M336 256C336 247.2 343.2 240 352 240C360.8 240 368 247.2 368 256C368 264.8 360.8 272 352 272C343.2 272 336 264.8 336 256zM208 256C208 247.2 215.2 240 224 240C232.8 240 240 247.2 240 256C240 264.8 232.8 272 224 272C215.2 272 208 264.8 208 256zM112 256C112 264.8 104.8 272 96 272C87.16 272 80 264.8 80 256C80 247.2 87.16 240 96 240C104.8 240 112 247.2 112 256z"/></svg>
